images/xht.svg

<svg height="250" viewBox="0 0 250 250" width="250" xmlns="http://www.w3.org/2000/svg"><path d="m250 125c0 69.035156-55.964844 125-125 125s-125-55.964844-125-125 55.964844-125 125-125 125 55.964844 125 125zm0 0"/><path d="m159.375 37.5h-68.75l-71.09375 86.71875 71.875 87.5h68.75l71.09375-87.5zm0 0"/><path d="m152.34375 53.90625 58.59375 71.09375-58.59375 70.3125h-53.90625l-58.59375-70.3125 58.59375-71.09375zm4.6875-10.15625h-63.28125l-67.1875 80.46875 66.40625 80.46875h63.28125l66.40625-80.46875zm0 0" fill="#fff"/><g fill="#00d9ff"><path d="m146.09375 178.90625h-42.96875l-44.53125-53.90625 45.3125-54.6875h42.96875l44.53125 53.90625zm-40.625-3.125h39.84375l42.1875-50.78125-42.1875-50.78125h-39.84375l-42.1875 50.78125zm0 0"/><path d="m135.15625 150h-20.3125v-.78125l-21.09375-25 21.09375-25.78125h20.3125l21.09375 25zm-19.53125-1.5625h18.75l19.53125-24.21875-19.53125-24.21875h-18.75l-19.53125 24.21875zm0 0"/></g></svg>

<!-- Generator: Adobe Illustrator 26.2.1, SVG Export Plug-In . SVG Version: 6.00 Build 0)  -->
<svg xmlns="http://www.w3.org/2000/svg" xmlns:xlink="http://www.w3.org/1999/xlink" width="250px" height="250px" viewBox="0 0 250 250" version="1.1">
<g id="surface1">
<path style=" stroke:none;fill-rule:nonzero;fill:rgb(0%,0%,0%);fill-opacity:1;" d="M 250 125 C 250 194.035156 194.035156 250 125 250 C 55.964844 250 0 194.035156 0 125 C 0 55.964844 55.964844 0 125 0 C 194.035156 0 250 55.964844 250 125 Z M 250 125 "/>
<path style=" stroke:none;fill-rule:nonzero;fill:rgb(0%,0%,0%);fill-opacity:1;" d="M 159.375 37.5 L 90.625 37.5 L 19.53125 124.21875 L 91.40625 211.71875 L 160.15625 211.71875 L 231.25 124.21875 Z M 159.375 37.5 "/>
<path style=" stroke:none;fill-rule:nonzero;fill:rgb(100%,100%,100%);fill-opacity:1;" d="M 152.34375 53.90625 L 210.9375 125 L 152.34375 195.3125 L 98.4375 195.3125 L 39.84375 125 L 98.4375 53.90625 L 152.34375 53.90625 M 157.03125 43.75 L 93.75 43.75 L 26.5625 124.21875 L 92.96875 204.6875 L 156.25 204.6875 L 222.65625 124.21875 Z M 157.03125 43.75 "/>
<path style=" stroke:none;fill-rule:nonzero;fill:rgb(0%,85.09804%,100%);fill-opacity:1;" d="M 146.09375 178.90625 L 103.125 178.90625 L 58.59375 125 L 103.90625 70.3125 L 146.875 70.3125 L 191.40625 124.21875 Z M 105.46875 175.78125 L 145.3125 175.78125 L 187.5 125 L 145.3125 74.21875 L 105.46875 74.21875 L 63.28125 125 Z M 105.46875 175.78125 "/>
<path style=" stroke:none;fill-rule:nonzero;fill:rgb(0%,85.09804%,100%);fill-opacity:1;" d="M 135.15625 150 L 114.84375 150 L 114.84375 149.21875 L 93.75 124.21875 L 114.84375 98.4375 L 135.15625 98.4375 L 156.25 123.4375 Z M 115.625 148.4375 L 134.375 148.4375 L 153.90625 124.21875 L 134.375 100 L 115.625 100 L 96.09375 124.21875 Z M 115.625 148.4375 "/>
</g>
</svg>
